X:17
T:Erik Isaks polska
R:polska J
A:H\"alsingland
Z:id:hn-jp-17
M:3/4
L:1/16
K:G
G2AB B2AB cBAB|G2AB c2Bc dcBc|d3d e2d2 f2d2|B3d g2d2 b2g2|
G2AB B2AB cBAB|G2AB c2Bc dcBc|d3d e2d2 f2d2|bafa g8:|
|:g2b2 bagf e2d2|^c2a2 afge f2d2|d2ef gfed =cBAG|FGAB AGFE DCB,A,|
G,2b2 bagf e2d2|^c2a2 afge f2d2|d2ef gfed =cBAG|AdFA G8:|

